X: 1
T:Rye straw
C:anon.
O:USA?
R:Reel
Z:Transcribed by Frank Nordberg - http://www.musicaviva.com
M:2/4
L:1/16
K:A
"A"E2AA "D"F2AA|"A"E2AA "D"(FED2)|"A"E2AA F2E2|"E7".e.e.e.e "A"(cB"^Fine"A2):|
"A"e4(e3"^_"e)|"D"(d2e2) (f2a2)|"A"e4(e3"^_"e)|"E7"(f2e2) "A"(cBA2)|
w:(4)***(0)
"A""_(4)"e4(e3"^_"e)|"D"(d2e2) (f2a2)|"A"a4=g4|"A"f4 "_D.C. al fine"e4|]
